X: 10520
T: Doon, The
R: reel
M: 4/4
K: Dmajor
DFAF BFAF|DFAF E2FE|DFAF BFAF|B/c/d ec dBAF|
DFAF BFAF|DFAF E2FE|DFAF BFAF|1 B/c/d ec d2AF:|2 B/c/d ec d2Bc||
d2fd Adfd|defd BABc|d2fd Adfa|afed B2AB|
d2fd Adfd|defd e2ef|gfec dcBA|1 B/c/d ec dBAB:|2 B/c/d ec dBAF||

